X:113
T:Schiarazula Marazula
M:C|
L:1/4
K:F
d | d c d c | B B B A | G F G A | G G G d | d c d c |
B B B A | G F G A | G G G c/B/ | A G A B | A G A d/c/ |
B G G =F | G G G c/B/ | A G A c | A G A d/c/ | B G G ^F | G3 :|
%
%
